X:22
T:Sollan Colka
R:polka
Z:id:hn-polka-22
M:2/4
L


*****************************


14600 0 1.5330718 

<starion A2 BA |
BA BA | BA BA | BA AB | BA AF | A2 G2 :|
|: BA B/A/B/|d2 d2:|
|:ed e/f/e/d/|e/f/e/ dB|BA


*****************************


14700 0 2.769004 

<starion parta
Z:id:hn-polka-24
M:2/4
L:1/8
K:D
A>B ce|df ef|ef/e/ de|fe de|fe fe|fe de|fe fe|dB AB|ce fe


*****************************


14800 0 0.83230174 

<star
A:D Bd|cB AB|cA A>B|cA A>B|cA A>B|cA B/c/d/|cA A>B|cA A>B|cA AB|cA A/B/c/|dB AB|cA AB|cA A/B/c/|d>B


*****************************


14900 0 0.91861457 

<star
Z:id:hn-polka-55
M:2/4
L:1/8
K:D
A>B AF|AF AF|AB cB|AB AB|ce fe|fe fe|fe ec|ef ec|ef ec|ef ec|ef ec


*****************************


15000 0 2.6071825 

<star
A:D Bc/d/ | ed ef/g/ | ed ef/g/ | ed ef/e/ | dB AB/c/ | dB AB/c/|dB AB/c/|dB AB/c/|dB AB/c/|dB AB/c


*****************************


15100 0 1.2966762 

<starion poltie
T:Jolle Mainna
Z:id:hn-polka-77
M:2/4
L:1/8
K:D
A>B AB|cB AB|cB AB|cB AB|cB AB|cB AB|ce d


*****************************


15200 0 1.007577 

<starion palla
R:polka
Z:id:hn-polka-88
M:2/4
L:1/8
K:D
D>B AB/c/|dB AB/c/|dB AB/c/|dB AB/c/|dB AB/c/|dB 


*****************************


15300 0 1.1853576 

<starit:
D>B cB|AB ce|fe ce|fe ce|fe ce|fe ce|fe ce|fe ce|fe ce|fe ce|fe ce|fe ce|fe ce|fe ce|fe ce|fe ce


*****************************


15400 0 2.6945364 

<star
D:D Be/d/ |
ed ce|fe de/f/|ed cB|A2 A2||
<end>
<start>
